T: Lucy Farr's
M: 4/4
L: 1/8
K: Gmaj
|:(3DEF|G2 G2 G2 G2|F>GA>F G2 D2|B>cd>B G4|A>Bc>A E4|D>EF>G A>Bc>d|e2 d2 B4|B>cd>B G4|A>Bc>A E4|D>EF>G A>B (3cBA|B2 G2 G:|
